!!!COM: Peter Cornelius
!!!CNT: Deutsch
!!!TXO: Deutsch
!!!OTL: Schmetterling
!!!LYR: Cornelius
!!!OPR: Six Songs
!!!OPS: Op.1
!!!ONM: No. 4
!!!ENC: Ben Fuhrman
!!!YOR: CD Sheet Music, Mid-Romantic German Lieder: The Ultimate Collection.
!!!YOR: CD Sheet Music, LLC 2001
!!!ODT: 1853 
!!NB: Only vocal melody encoded.
!!NB: First instance of melodic material only encoded.
!!created: 2/1/10 2:10PM
!!proofed and posted: 2/1/10 2:10PM
**kern	**silbe
*clef G2	*
*k[b-]	*
*M2/4	*
*MM[Innig, zeimlich gewegt]	*
{8a	   {Wer
=1	   =1
4cc	   hat's
8.f	   doch
16g	   durch-
=2	   =2
4g	   -schau-
8a}	   -et,}
{8a	   {dem
=3	   =3
8b-	   Schmet-
8a	   -ter-
8.dd	   -ling
16cc	   ver-
=4	   =4
4cc	   -trau-
8bn}	   -et:}
{8bn	   {dass
=5	   =5
4cc	   Ho-
8b-	   -nig-
8a	   -be-
=6	   =6
4a	   -tau-
8g	   -et
8f	   ein
=7	   =7
8cc	   Blu2m-
8b-	   -chen
8.d	   du,
16e	   mein
=8	   =8
4.e}	   Lieb?}
{8a	   {Dass
=9	   =9
4a	   er
8.d	   dich
16e	   um-
=10	   =10
4e	   -schwe-
8f#}	   -bet,}
16r	   .
{16b-	   {um
=11	   =11
(8b-	   dich
8a)	   im
8.g	   Flu-
16fn	   -ge
=12	   =12
4f	   be-
8e	   -bet
8cc	   und
=13	   =13
4cc	   Ho-
8a	   -nig
8dd	   er-
=14	   =14
(8dd	   -stre-
8cc)	   |
8b-}	   -bet,
{8a	   {der
=15	   =15
(8a	   flat-
8g)	   |
8f	   -tern-
8e	   -de
=16	   =16
4f}	   Dieb!}
4r	   .
==	==
*-	*-
